src/cmd/sc_freezepanes.svg

<svg viewBox="0 0 16 16" xmlns="http://www.w3.org/2000/svg">/&gt;<path d="m2 2v3 2 1 2 1 2 1h12v-1-2-1-2-1-2-3zm3 3h1 1 1v2h-1-1-1zm4 0h4v2h-4zm-4 3h1 1 1v2h-1-1-1zm4 0h4v2h-4zm-4 3h1 1 1v2h-1-1-1zm4 0h4v2h-4z" fill="#232629"/></svg>

<?xml version="1.0" encoding="UTF-8" standalone="no"?>
<svg
   xmlns:dc="http://purl.org/dc/elements/1.1/"
   xmlns:cc="http://creativecommons.org/ns#"
   xmlns:rdf="http://www.w3.org/1999/02/22-rdf-syntax-ns#"
   xmlns:svg="http://www.w3.org/2000/svg"
   xmlns="http://www.w3.org/2000/svg"
   xmlns:sodipodi="http://sodipodi.sourceforge.net/DTD/sodipodi-0.dtd"
   xmlns:inkscape="http://www.inkscape.org/namespaces/inkscape"
   viewBox="0 0 16 16"
   version="1.1"
   id="svg4"
   sodipodi:docname="sc_freezepanes.svg"
   inkscape:version="0.92.4 (5da689c313, 2019-01-14)"><metadata
   id="metadata10">
  <rdf:RDF>
    <cc:Work
       rdf:about="">
      <dc:format>image/svg+xml</dc:format>
      <dc:type
         rdf:resource="http://purl.org/dc/dcmitype/StillImage" />
    </cc:Work>
  </rdf:RDF>
</metadata>
<defs
   id="defs8" />
<sodipodi:namedview
   pagecolor="#ffffff"
   bordercolor="#666666"
   borderopacity="1"
   objecttolerance="10"
   gridtolerance="10"
   guidetolerance="10"
   inkscape:pageopacity="0"
   inkscape:pageshadow="2"
   inkscape:window-width="1920"
   inkscape:window-height="1011"
   id="namedview6"
   showgrid="true"
   inkscape:zoom="59"
   inkscape:cx="6.8542214"
   inkscape:cy="5.0591496"
   inkscape:window-x="1920"
   inkscape:window-y="32"
   inkscape:window-maximized="1"
   inkscape:current-layer="svg4">
  <inkscape:grid
     type="xygrid"
     id="grid817" />
</sodipodi:namedview>
/&gt;<path
   d="M 5,2 C 3,2 2,2 2,4 v 3 1 2 1 1 c 0,2 1,2 3,2 h 6 c 2,0 3,0 3,-2 V 11 10 8 7 5 2 Z M 5,5 H 6 7 8 V 7 H 7 6 5 Z m 4,0 h 4 V 7 H 9 Z M 5,8 h 1 1 1 v 2 H 7 6 5 Z m 4,0 h 4 v 2 H 9 Z m -4,3 h 1 1 1 v 2 H 7 6 5 Z m 4,0 h 4 v 1 c 0,1 -1,1 -2,1 H 9 Z"
   id="path2"
   inkscape:connector-curvature="0"
   style="fill:#232629"
   sodipodi:nodetypes="cccccccccccccccccccccccccccccccccccccccccccccccccccccccccccc" />
</svg>
